resources/haticons/SVG/brightness_low.svg

<!-- Generated by IcoMoon.io -->
<svg version="1.1" xmlns="http://www.w3.org/2000/svg" width="24" height="24" viewBox="0 0 24 24">
<title>brightness_low</title>
<path d="M12 18q2.484 0 4.242-1.758t1.758-4.242-1.758-4.242-4.242-1.758-4.242 1.758-1.758 4.242 1.758 4.242 4.242 1.758zM20.016 15.328v4.688h-4.688l-3.328 3.281-3.328-3.281h-4.688v-4.688l-3.281-3.328 3.281-3.328v-4.688h4.688l3.328-3.281 3.328 3.281h4.688v4.688l3.281 3.328z"></path>
</svg>

<svg xmlns="http://www.w3.org/2000/svg" width="24" height="24"><path d="M12 18q2.484 0 4.242-1.758T18 12t-1.758-4.242T12 6 7.758 7.758 6 12t1.758 4.242T12 18zm8.016-2.672v4.688h-4.688L12 23.297l-3.328-3.281H3.984v-4.688L.703 12l3.281-3.328V3.984h4.688L12 .703l3.328 3.281h4.688v4.688L23.297 12z"/></svg>
